fs/arrow_curve_down_left_24_filled.svg

<svg viewBox="0 0 24 24" fill="none" xmlns="http://www.w3.org/2000/svg" height="1em" width="1em">
  <path d="M16.8682 3.25403C17.1423 3.73354 16.9757 4.34439 16.4961 4.6184C14.6213 5.68974 13.7845 6.98078 13.3824 8.31386C12.9937 9.60288 12.9965 10.957 12.9995 12.3757C12.9997 12.5 13 12.6248 13 12.7501V17.8358L16.2929 14.543C16.6834 14.1524 17.3166 14.1524 17.7071 14.543C18.0976 14.9335 18.0976 15.5666 17.7071 15.9572L12.7071 20.9571C12.3166 21.3476 11.6834 21.3476 11.2929 20.9571L6.29289 15.9572C5.90237 15.5666 5.90237 14.9335 6.29289 14.543C6.68342 14.1524 7.31658 14.1524 7.70711 14.543L11 17.8358V12.7501C11 12.6196 10.9995 12.4861 10.999 12.3498C10.994 10.9771 10.988 9.32655 11.4676 7.73638C12.0155 5.9195 13.1787 4.21056 15.5039 2.88193C15.9834 2.60792 16.5942 2.77451 16.8682 3.25403Z" fill="#212121"/>
</svg>

<svg viewBox="0 0 24 24" fill="none" xmlns="http://www.w3.org/2000/svg" height="1em" width="1em">
  <path d="M16.868 3.254a1 1 0 0 1-.372 1.364c-1.875 1.072-2.711 2.363-3.114 3.696-.388 1.289-.386 2.643-.383 4.062l.001.374v5.086l3.293-3.293a1 1 0 1 1 1.414 1.414l-5 5a1 1 0 0 1-1.414 0l-5-5a1 1 0 1 1 1.414-1.414L11 17.836V12.75l-.001-.4c-.005-1.373-.011-3.023.469-4.614.547-1.816 1.71-3.525 4.036-4.854a1 1 0 0 1 1.364.372Z" fill="#212121"/>
</svg>
